public/imgs/bg/snow/Snow5.svg

<svg xmlns="http://www.w3.org/2000/svg" width="77.5" height="81.35"><path d="M73.67 42.18v-3h-3.52l7.35-12.73h-3.44L66.7 39.18h-3.44l7.35-12.73h-3.45l-7.35 12.73h-3.44l7.35-12.73h-.32l.16-.28h-14.7l1.72-3h14.7l1.73-3h-14.7l1.72-3h14.7l1.72-3h-14.7l1.76-3.05-2.6-1.5-1.76 3.05L45.8 0l-1.72 3 7.35 12.74-1.72 3L42.36 6l-1.73 3L48 21.68l-1.72 3-7.37-12.74-.16.27-.16-.28-7.35 12.73-1.72-3L36.87 9l-1.73-3-7.34 12.7-1.73-3L33.42 3 31.7 0l-7.35 12.73-1.76-3.05-2.59 1.5 1.76 3.05H7.05l1.72 3h14.71l1.72 3H10.5l1.72 3h14.7l1.72 3h-14.7l.16.29h-.32l7.35 12.73h-3.44l-7.35-12.8H6.89l7.35 12.73H10.8L3.44 26.45H0l7.35 12.73H3.83v3h3.52L0 54.91h3.44l7.36-12.73h3.44L6.89 54.91h3.45l7.35-12.73h3.44l-7.35 12.73h.32l-.16.27h14.7l-1.72 3h-14.7l-1.72 3h14.7l-1.72 3H8.77l-1.72 3h14.7l-1.76 3 2.6 1.5 1.76-3 7.35 12.67 1.72-3-7.35-12.72 1.73-3 7.34 12.73 1.73-3-7.35-12.69 1.72-3 7.35 12.73.16-.28.16.27 7.35-12.73 1.72 3-7.35 12.74 1.73 3 7.35-12.73 1.72 3-7.35 12.69 1.72 3 7.35-12.73 1.76 3 2.6-1.5-1.76-3.06h14.7l-1.72-3H54l-1.72-3H67l-1.73-3H50.58l-1.72-3h14.7l-.16-.27h.32l-7.35-12.62h3.44l7.35 12.73h3.45l-7.35-12.73h3.44l7.36 12.73h3.44l-7.35-12.73zM44.53 27.63l-5.78 10-5.75-10 5.78-10zm-25.75 1.52h11.57l5.78 10H24.56zm0 23.05l5.78-10h11.57l-5.78 10zm20-8.5l5.78 10-5.78 10L33 53.71zm20 8.5H47.15l-5.78-10h11.56zm-5.77-13H41.37l5.78-10h11.57z" fill="#598d9a"/></svg>

<svg xmlns="http://www.w3.org/2000/svg" width="77.5" height="81.35" viewBox="0 0 77.5 81.35"><path d="M73.67,42.18v-3H70.15L77.5,26.45H74.06L66.7,39.18H63.26l7.35-12.73H67.16L59.81,39.18H56.37l7.35-12.73H63.4l.16-.28H48.86l1.72-3h14.7l1.73-3H52.31l1.72-3h14.7l1.72-3H55.75l1.76-3.05-2.6-1.5-1.76,3.05L45.8,0,44.08,3l7.35,12.74-1.72,3L42.36,6,40.63,9,48,21.68l-1.72,3L38.91,11.94l-.16.27-.16-.28L31.24,24.66l-1.72-3L36.87,9,35.14,6,27.8,18.7l-1.73-3L33.42,3,31.7,0,24.35,12.73,22.59,9.68,20,11.18l1.76,3.05H7.05l1.72,3H23.48l1.72,3H10.5l1.72,3h14.7l1.72,3H13.94l.16.29h-.32l7.35,12.73H17.69L10.34,26.45H6.89l7.35,12.73H10.8L3.44,26.45H0L7.35,39.18H3.83v3H7.35L0,54.91H3.44L10.8,42.18h3.44L6.89,54.91h3.45l7.35-12.73h3.44L13.78,54.91h.32l-.16.27h14.7l-1.72,3H12.22l-1.72,3H25.2l-1.72,3H8.77l-1.72,3h14.7l-1.76,3,2.6,1.5,1.76-3L31.7,81.35l1.72-3L26.07,65.63l1.73-3,7.34,12.73,1.73-3L29.52,59.67l1.72-3,7.35,12.73.16-.28.16.27,7.35-12.73,1.72,3L40.63,72.4l1.73,3,7.35-12.73,1.72,3L44.08,78.36l1.72,3,7.35-12.73,1.76,3,2.6-1.5-1.76-3.06h14.7l-1.72-3H54l-1.72-3H67l-1.73-3H50.58l-1.72-3h14.7l-.16-.27h.32L56.37,42.18h3.44l7.35,12.73h3.45L63.26,42.18H66.7l7.36,12.73H77.5L70.15,42.18ZM44.53,27.63l-5.78,10L33,27.63l5.78-10ZM18.78,29.15H30.35l5.78,10H24.56Zm0,23.05,5.78-10H36.13l-5.78,10Zm20-8.5,5.78,10-5.78,10L33,53.71Zm20,8.5H47.15l-5.78-10H52.93Zm-5.77-13H41.37l5.78-10H58.72Z" fill="#598d9a"/></svg>
